svg/shape/clubs_line.svg

<?xml version="1.0" encoding="UTF-8"?>
<svg width="24px" height="24px" viewBox="0 0 24 24" version="1.1" xmlns="http://www.w3.org/2000/svg" xmlns:xlink="http://www.w3.org/1999/xlink">
    <title>clubs_line</title>
    <g id="Icon" stroke="none" stroke-width="1" fill="none" fill-rule="evenodd">
        <g id="Shape" transform="translate(-480.000000, 0.000000)">
            <g id="clubs_line" transform="translate(480.000000, 0.000000)">
                <path d="M24,0 L24,24 L0,24 L0,0 L24,0 Z M12.5935,23.2578 L12.5819,23.2595 L12.5109,23.295 L12.4919,23.2987 L12.4767,23.295 L12.4057,23.2595 C12.3958,23.2564 12.387,23.259 12.3821,23.2649 L12.378,23.2758 L12.3609,23.7031 L12.3659,23.7235 L12.3769,23.7357 L12.4805,23.8097 L12.4953,23.8136 L12.5071,23.8097 L12.6107,23.7357 L12.6233,23.7197 L12.6267,23.7031 L12.6096,23.2758 C12.6076,23.2657 12.601,23.2593 12.5935,23.2578 Z M12.8584,23.1453 L12.8445,23.1473 L12.6598,23.2397 L12.6499,23.2499 L12.6472,23.2611 L12.6651,23.6906 L12.6699,23.7034 L12.6784,23.7105 L12.8793,23.8032 C12.8914,23.8069 12.9022,23.803 12.9078,23.7952 L12.9118,23.7812 L12.8777,23.1665 C12.8753,23.1546 12.8674,23.147 12.8584,23.1453 Z M12.143,23.1473 C12.1332,23.1424 12.1222,23.1453 12.1156,23.1526 L12.1099,23.1665 L12.0758,23.7812 C12.0751,23.7927 12.0828,23.8019 12.0926,23.8046 L12.1083,23.8032 L12.3092,23.7105 L12.3186,23.7024 L12.3225,23.6906 L12.3404,23.2611 L12.3372,23.2485 L12.3278,23.2397 L12.143,23.1473 Z" id="MingCute" fill-rule="nonzero"></path>
                <path d="M12,5 C10.3431,5 9,6.34315 9,8 C9,8.56004 9.15252,9.08141 9.41768,9.5282 C9.61383,9.85869 9.60322,10.2723 9.3904,10.5923 C9.17757,10.9124 8.80019,11.0821 8.41956,11.029 C8.28294,11.0099 8.14291,11 8,11 C6.34315,11 5,12.3431 5,14 C5,15.6569 6.34315,17 8,17 C8.64894,17 9.24706,16.7951 9.73704,16.4463 C10.0749,16.2059 10.526,16.1989 10.8712,16.4287 C11.2163,16.6585 11.3838,17.0775 11.2922,17.4819 C11.1051,18.3086 10.8672,19.1892 10.565,20 L13.435,20 C13.1328,19.1892 12.8949,18.3086 12.7078,17.4819 C12.6162,17.0775 12.7837,16.6585 13.1288,16.4287 C13.474,16.1989 13.9251,16.2059 14.263,16.4463 C14.7529,16.7951 15.3511,17 16,17 C17.6569,17 19,15.6569 19,14 C19,12.3431 17.6569,11 16,11 C15.8571,11 15.7171,11.0099 15.5804,11.029 C15.1998,11.0821 14.8224,10.9124 14.6096,10.5924 C14.3968,10.2723 14.3862,9.85869 14.5823,9.5282 C14.8475,9.08141 15,8.56004 15,8 C15,6.34315 13.6569,5 12,5 Z M7,8 C7,5.23858 9.23858,3 12,3 C14.7614,3 17,5.23858 17,8 C17,8.36963 16.9597,8.73035 16.8833,9.07778 C19.2234,9.49492 21,11.54 21,14 C21,16.7614 18.7614,19 16,19 C15.7203,19 15.4458,18.977 15.1784,18.9327 C15.381,19.5346 15.6076,20.0691 15.8575,20.4855 C16.0429,20.7944 16.0477,21.1792 15.8702,21.4927 C15.6927,21.8062 15.3603,22 15,22 L9,22 C8.63973,22 8.30731,21.8062 8.1298,21.4927 C7.95229,21.1792 7.95715,20.7944 8.14251,20.4855 C8.39235,20.0691 8.61902,19.5346 8.8216,18.9327 C8.55416,18.977 8.27967,19 8,19 C5.23858,19 3,16.7614 3,14 C3,11.54 4.77655,9.49492 7.11667,9.07778 C7.04026,8.73035 7,8.36963 7,8 Z" id="形状" fill="#09244B"></path>
            </g>
        </g>
    </g>
</svg>

<svg xmlns="http://www.w3.org/2000/svg" width="24" height="24"><g fill="none" fill-rule="evenodd"><path d="M24 0v24H0V0h24ZM12.594 23.258l-.012.002-.071.035-.02.004-.014-.004-.071-.036c-.01-.003-.019 0-.024.006l-.004.01-.017.428.005.02.01.013.104.074.015.004.012-.004.104-.074.012-.016.004-.017-.017-.427c-.002-.01-.009-.017-.016-.018Zm.264-.113-.014.002-.184.093-.01.01-.003.011.018.43.005.012.008.008.201.092c.012.004.023 0 .029-.008l.004-.014-.034-.614c-.003-.012-.01-.02-.02-.022Zm-.715.002a.023.023 0 0 0-.027.006l-.006.014-.034.614c0 .012.007.02.017.024l.015-.002.201-.093.01-.008.003-.011.018-.43-.003-.012-.01-.01-.184-.092Z"/><path fill="#09244B" d="M12 5a3 3 0 0 0-2.582 4.528 1 1 0 0 1-.998 1.501 3 3 0 1 0 1.317 5.417 1 1 0 0 1 1.555 1.036A19.934 19.934 0 0 1 10.565 20h2.87c-.302-.81-.54-1.691-.727-2.518a1 1 0 0 1 1.555-1.036 3 3 0 1 0 1.317-5.417 1 1 0 0 1-.998-1.5A3 3 0 0 0 12 5ZM7 8a5 5 0 1 1 9.883 1.078 5.002 5.002 0 0 1-1.705 9.855c.203.602.43 1.136.68 1.552A1 1 0 0 1 15 22H9a1 1 0 0 1-.857-1.515c.25-.416.476-.95.679-1.552a5 5 0 0 1-1.705-9.855A5.014 5.014 0 0 1 7 8Z"/></g></svg>
